actions/24/system-switch-user.svg

<?xml version="1.0" encoding="UTF-8" standalone="no"?>
<!-- Created with Inkscape (http://www.inkscape.org/) -->

<svg
   xmlns:dc="http://purl.org/dc/elements/1.1/"
   xmlns:cc="http://creativecommons.org/ns#"
   xmlns:rdf="http://www.w3.org/1999/02/22-rdf-syntax-ns#"
   xmlns:svg="http://www.w3.org/2000/svg"
   xmlns="http://www.w3.org/2000/svg"
   xmlns:xlink="http://www.w3.org/1999/xlink"
   xmlns:inkscape="http://www.inkscape.org/namespaces/inkscape"
   version="1.0"
   width="24"
   height="24"
   viewBox="0 0 128.012 128"
   id="svg3543"
   xml:space="preserve"
   style="overflow:visible"><metadata
   id="metadata3602"><rdf:RDF><cc:Work
       rdf:about=""><dc:format>image/svg+xml</dc:format><dc:type
         rdf:resource="http://purl.org/dc/dcmitype/StillImage" /></cc:Work></rdf:RDF></metadata><defs
   id="defs3600"><linearGradient
     id="linearGradient3222"><stop
       id="stop3224"
       style="stop-color:#eda606;stop-opacity:1"
       offset="0" /><stop
       id="stop3226"
       style="stop-color:#efb220;stop-opacity:1"
       offset="0.36119571" /><stop
       id="stop3228"
       style="stop-color:#f1be3b;stop-opacity:0"
       offset="1" /></linearGradient><linearGradient
     id="linearGradient3840"><stop
       id="stop3842"
       style="stop-color:#eda606;stop-opacity:1"
       offset="0" /><stop
       id="stop3844"
       style="stop-color:#efb220;stop-opacity:1"
       offset="0.31757474" /><stop
       id="stop3846"
       style="stop-color:#f1be3b;stop-opacity:0"
       offset="1" /></linearGradient><linearGradient
     id="linearGradient3793"><stop
       id="stop3795"
       style="stop-color:#8cab2a;stop-opacity:0"
       offset="0" /><stop
       id="stop3797"
       style="stop-color:#b1c948;stop-opacity:1"
       offset="0.6127364" /><stop
       id="stop3799"
       style="stop-color:#d7e866;stop-opacity:1"
       offset="1" /></linearGradient><linearGradient
     id="linearGradient4222"><stop
       id="stop4224"
       style="stop-color:#ffffff;stop-opacity:1"
       offset="0" /><stop
       id="stop4226"
       style="stop-color:#ffffff;stop-opacity:0"
       offset="1" /></linearGradient><linearGradient
     id="linearGradient3480"><stop
       id="stop3482"
       style="stop-color:#548820;stop-opacity:1"
       offset="0" /><stop
       id="stop3484"
       style="stop-color:#548820;stop-opacity:0"
       offset="1" /></linearGradient><linearGradient
     id="linearGradient5432"><stop
       id="stop5434"
       style="stop-color:#a65612;stop-opacity:1"
       offset="0" /><stop
       id="stop5436"
       style="stop-color:#a65612;stop-opacity:0"
       offset="1" /></linearGradient><linearGradient
     x1="3.8877637"
     y1="26.022909"
     x2="-8.7979088"
     y2="26.022909"
     id="linearGradient2511"
     xlink:href="#linearGradient4222"
     gradientUnits="userSpaceOnUse"
     gradientTransform="matrix(1.5151998,0,0,1.3409057,54.0976,8.0030647)" /><linearGradient
     x1="62.952984"
     y1="23.890968"
     x2="2.4973762"
     y2="23.890968"
     id="linearGradient2514"
     xlink:href="#linearGradient3793"
     gradientUnits="userSpaceOnUse"
     gradientTransform="matrix(-1.4972214,0,0,1.407523,128.08668,10.313069)" /><linearGradient
     x1="40.808029"
     y1="44.845047"
     x2="40.808029"
     y2="26.149443"
     id="linearGradient2516"
     xlink:href="#linearGradient3480"
     gradientUnits="userSpaceOnUse"
     gradientTransform="matrix(0,-2.7955378,2.9736912,0,-43.928237,158.02055)" /><linearGradient
     x1="3.8877637"
     y1="26.022909"
     x2="-8.7979088"
     y2="26.022909"
     id="linearGradient3831"
     xlink:href="#linearGradient4222"
     gradientUnits="userSpaceOnUse"
     gradientTransform="matrix(-1.6851078,0,0,1.499209,76.73491,51.898989)" /><linearGradient
     x1="3.8738406"
     y1="28.280676"
     x2="62.400131"
     y2="28.280676"
     id="linearGradient3834"
     xlink:href="#linearGradient3840"
     gradientUnits="userSpaceOnUse"
     gradientTransform="matrix(1.4972214,0,0,1.4075229,-0.07468246,58.317563)" /><linearGradient
     x1="41.81702"
     y1="45.610001"
     x2="41.81702"
     y2="26.597807"
     id="linearGradient3836"
     xlink:href="#linearGradient5432"
     gradientUnits="userSpaceOnUse"
     gradientTransform="matrix(0,-2.7955375,-2.9736912,0,171.94023,206.02502)" /><linearGradient
     x1="5.6373582"
     y1="25.809036"
     x2="64.197998"
     y2="25.809036"
     id="linearGradient3216"
     xlink:href="#linearGradient3222"
     gradientUnits="userSpaceOnUse"
     gradientTransform="matrix(1.4972214,0,0,1.407523,-0.07468339,58.317568)" /><linearGradient
     x1="40.808029"
     y1="44.845047"
     x2="40.808029"
     y2="27.833984"
     id="linearGradient3218"
     xlink:href="#linearGradient5432"
     gradientUnits="userSpaceOnUse"
     gradientTransform="matrix(0,-2.7955378,-2.9736912,0,171.94023,206.02505)" /><linearGradient
     x1="3.8877637"
     y1="26.022909"
     x2="-8.7979088"
     y2="26.022909"
     id="linearGradient3220"
     xlink:href="#linearGradient4222"
     gradientUnits="userSpaceOnUse"
     gradientTransform="matrix(-1.5151998,0,0,1.3409057,73.914405,56.007563)" /></defs>
	
	
	
	<linearGradient
   x1="89.220703"
   y1="70.170898"
   x2="77.356499"
   y2="20.816099"
   id="XMLID_7_"
   gradientUnits="userSpaceOnUse">
		<stop
   id="stop3552"
   style="stop-color:#489606;stop-opacity:1"
   offset="0" />
		<stop
   id="stop3554"
   style="stop-color:#51a706;stop-opacity:1"
   offset="1" />
	</linearGradient>
	
	
		<linearGradient
   x1="595.16412"
   y1="44.329102"
   x2="579.53802"
   y2="75.265999"
   id="XMLID_8_"
   gradientUnits="userSpaceOnUse"
   gradientTransform="matrix(-1,0,0,1,676.1953,0)">
		<stop
   id="stop3559"
   style="stop-color:#59a907;stop-opacity:1"
   offset="0" />
		<stop
   id="stop3561"
   style="stop-color:#6ec308;stop-opacity:1"
   offset="1" />
	</linearGradient>
	
	
	<linearGradient
   x1="43.597698"
   y1="37.950199"
   x2="122.6445"
   y2="37.950199"
   id="XMLID_9_"
   gradientUnits="userSpaceOnUse">
		<stop
   id="stop3568"
   style="stop-color:#9bca6a;stop-opacity:1"
   offset="0" />
		<stop
   id="stop3570"
   style="stop-color:#87c349;stop-opacity:1"
   offset="1" />
	</linearGradient>
	
	
	<linearGradient
   x1="1"
   y1="78.950203"
   x2="85.414101"
   y2="78.950203"
   id="XMLID_10_"
   gradientUnits="userSpaceOnUse">
		<stop
   id="stop3577"
   style="stop-color:#489606;stop-opacity:1"
   offset="0" />
		<stop
   id="stop3579"
   style="stop-color:#51a706;stop-opacity:1"
   offset="1" />
	</linearGradient>
	
	<linearGradient
   x1="8.1542997"
   y1="64.207001"
   x2="80.318703"
   y2="98.641296"
   id="XMLID_11_"
   gradientUnits="userSpaceOnUse">
		<stop
   id="stop3584"
   style="stop-color:#59a907;stop-opacity:1"
   offset="0" />
		<stop
   id="stop3586"
   style="stop-color:#6ec308;stop-opacity:1"
   offset="1" />
	</linearGradient>
	
	
	<linearGradient
   x1="15.6523"
   y1="59.7617"
   x2="19.4666"
   y2="76.925697"
   id="XMLID_12_"
   gradientUnits="userSpaceOnUse">
		<stop
   id="stop3593"
   style="stop-color:#9bca6a;stop-opacity:1"
   offset="0" />
		<stop
   id="stop3595"
   style="stop-color:#87c349;stop-opacity:1"
   offset="1" />
	</linearGradient>
	
<path
   d="m 88.00825,13.328584 37.33683,29.336085 -37.33683,29.336084 0,-16.001503 -53.338333,0 0,-26.669167 53.338333,0 0,-16.001499 z"
   inkscape:connector-curvature="0"
   id="path4348"
   style="fill:url(#linearGradient2514);fill-opacity:1;fill-rule:nonzero;stroke:url(#linearGradient2516);stroke-width:5.33383322;stroke-linecap:round;stroke-linejoin:round;stroke-miterlimit:4;stroke-opacity:1;stroke-dasharray:none;stroke-dashoffset:0;marker:none;visibility:visible;display:inline;overflow:visible" /><path
   d="m 93.342083,24.317066 23.637307,18.362379 -23.637307,18.612694 0,-10.626722 -51.674766,0 -0.146207,-16.0015 51.820973,0 0,-10.346851 z"
   inkscape:connector-curvature="0"
   id="path4360"
   style="opacity:0.35400008;fill:none;stroke:url(#linearGradient2511);stroke-width:5.33383369;stroke-linecap:butt;stroke-linejoin:miter;stroke-miterlimit:4;stroke-opacity:1;stroke-dasharray:none;stroke-dashoffset:0;marker:none;visibility:visible;display:inline;overflow:visible" /><path
   d="M 40.003745,61.333083 2.6669166,90.66917 l 37.3368284,29.33608 0,-16.0015 53.33834,0 0,-26.669168 -53.33834,0 0,-16.001499 z"
   inkscape:connector-curvature="0"
   id="path3212"
   style="fill:url(#linearGradient3216);fill-opacity:1;fill-rule:nonzero;stroke:url(#linearGradient3218);stroke-width:5.33383322;stroke-linecap:round;stroke-linejoin:round;stroke-miterlimit:4;stroke-opacity:1;stroke-dasharray:none;stroke-dashoffset:0;marker:none;visibility:visible;display:inline;overflow:visible" /><path
   d="m 34.669915,72.321565 -23.637308,18.362375 23.637308,18.6127 0,-10.62672 51.67477,0 0.14621,-16.001504 -51.82098,0 0,-10.346851 z"
   inkscape:connector-curvature="0"
   id="path3214"
   style="opacity:0.35400008;fill:none;stroke:url(#linearGradient3220);stroke-width:5.33383369;stroke-linecap:butt;stroke-linejoin:miter;stroke-miterlimit:4;stroke-opacity:1;stroke-dasharray:none;stroke-dashoffset:0;marker:none;visibility:visible;display:inline;overflow:visible" /></svg>

<?xml version="1.0" encoding="UTF-8" standalone="no"?>
<svg
   xmlns:dc="http://purl.org/dc/elements/1.1/"
   xmlns:cc="http://creativecommons.org/ns#"
   xmlns:rdf="http://www.w3.org/1999/02/22-rdf-syntax-ns#"
   xmlns:svg="http://www.w3.org/2000/svg"
   xmlns="http://www.w3.org/2000/svg"
   xmlns:xlink="http://www.w3.org/1999/xlink"
   xmlns:sodipodi="http://sodipodi.sourceforge.net/DTD/sodipodi-0.dtd"
   xmlns:inkscape="http://www.inkscape.org/namespaces/inkscape"
   version="1.0"
   width="24"
   height="24"
   viewBox="0 0 128.012 128"
   overflow="visible"
   enable-background="new 0 0 128.012 128"
   xml:space="preserve"
   id="svg3543"
   sodipodi:version="0.32"
   inkscape:version="0.46"
   sodipodi:docname="gnome-session-switch.svg"
   inkscape:output_extension="org.inkscape.output.svg.inkscape"
   style="overflow:visible"><metadata
   id="metadata3602"><rdf:RDF><cc:Work
       rdf:about=""><dc:format>image/svg+xml</dc:format><dc:type
         rdf:resource="http://purl.org/dc/dcmitype/StillImage" /></cc:Work></rdf:RDF></metadata><defs
   id="defs3600"><linearGradient
     id="linearGradient3222"><stop
       id="stop3224"
       offset="0"
       style="stop-color:#eda606;stop-opacity:1;" /><stop
       style="stop-color:#efb220;stop-opacity:1;"
       offset="0.36119571"
       id="stop3226" /><stop
       id="stop3228"
       offset="1"
       style="stop-color:#f1be3b;stop-opacity:0;" /></linearGradient><linearGradient
     id="linearGradient3840"><stop
       style="stop-color:#eda606;stop-opacity:1;"
       offset="0"
       id="stop3842" /><stop
       id="stop3844"
       offset="0.31757474"
       style="stop-color:#efb220;stop-opacity:1;" /><stop
       style="stop-color:#f1be3b;stop-opacity:0;"
       offset="1"
       id="stop3846" /></linearGradient><linearGradient
     id="linearGradient3793"><stop
       id="stop3795"
       offset="0"
       style="stop-color:#8cab2a;stop-opacity:0;" /><stop
       style="stop-color:#b1c948;stop-opacity:1;"
       offset="0.6127364"
       id="stop3797" /><stop
       id="stop3799"
       offset="1"
       style="stop-color:#d7e866;stop-opacity:1;" /></linearGradient><linearGradient
     id="linearGradient4222"><stop
       style="stop-color:#ffffff;stop-opacity:1;"
       offset="0"
       id="stop4224" /><stop
       style="stop-color:#ffffff;stop-opacity:0;"
       offset="1"
       id="stop4226" /></linearGradient><linearGradient
     id="linearGradient3480"><stop
       id="stop3482"
       offset="0"
       style="stop-color:#548820;stop-opacity:1" /><stop
       id="stop3484"
       offset="1"
       style="stop-color:#548820;stop-opacity:0;" /></linearGradient><linearGradient
     id="linearGradient5432"><stop
       id="stop5434"
       offset="0"
       style="stop-color:#a65612;stop-opacity:1;" /><stop
       id="stop5436"
       offset="1"
       style="stop-color:#a65612;stop-opacity:0;" /></linearGradient><linearGradient
     inkscape:collect="always"
     xlink:href="#linearGradient4222"
     id="linearGradient2511"
     gradientUnits="userSpaceOnUse"
     gradientTransform="matrix(1.5151998,0,0,1.3409057,54.0976,8.0030647)"
     x1="3.8877637"
     y1="26.022909"
     x2="-8.7979088"
     y2="26.022909" /><linearGradient
     inkscape:collect="always"
     xlink:href="#linearGradient3793"
     id="linearGradient2514"
     gradientUnits="userSpaceOnUse"
     gradientTransform="matrix(-1.4972214,0,0,1.407523,128.08668,10.313069)"
     x1="62.952984"
     y1="23.890968"
     x2="2.4973762"
     y2="23.890968" /><linearGradient
     inkscape:collect="always"
     xlink:href="#linearGradient3480"
     id="linearGradient2516"
     gradientUnits="userSpaceOnUse"
     x1="40.808029"
     y1="44.845047"
     x2="40.808029"
     y2="26.149443"
     gradientTransform="matrix(0,-2.7955378,2.9736912,0,-43.928237,158.02055)" /><linearGradient
     inkscape:collect="always"
     xlink:href="#linearGradient4222"
     id="linearGradient3831"
     gradientUnits="userSpaceOnUse"
     gradientTransform="matrix(-1.6851078,0,0,1.499209,76.73491,51.898989)"
     x1="3.8877637"
     y1="26.022909"
     x2="-8.7979088"
     y2="26.022909" /><linearGradient
     inkscape:collect="always"
     xlink:href="#linearGradient3840"
     id="linearGradient3834"
     gradientUnits="userSpaceOnUse"
     gradientTransform="matrix(1.4972214,0,0,1.4075229,-7.4682457e-2,58.317563)"
     x1="3.8738406"
     y1="28.280676"
     x2="62.400131"
     y2="28.280676" /><linearGradient
     inkscape:collect="always"
     xlink:href="#linearGradient5432"
     id="linearGradient3836"
     gradientUnits="userSpaceOnUse"
     gradientTransform="matrix(0,-2.7955375,-2.9736912,0,171.94023,206.02502)"
     x1="41.81702"
     y1="45.610001"
     x2="41.81702"
     y2="26.597807" /><linearGradient
     inkscape:collect="always"
     xlink:href="#linearGradient3222"
     id="linearGradient3216"
     gradientUnits="userSpaceOnUse"
     gradientTransform="matrix(1.4972214,0,0,1.407523,-7.4683391e-2,58.317568)"
     x1="5.6373582"
     y1="25.809036"
     x2="64.197998"
     y2="25.809036" /><linearGradient
     inkscape:collect="always"
     xlink:href="#linearGradient5432"
     id="linearGradient3218"
     gradientUnits="userSpaceOnUse"
     gradientTransform="matrix(0,-2.7955378,-2.9736912,0,171.94023,206.02505)"
     x1="40.808029"
     y1="44.845047"
     x2="40.808029"
     y2="27.833984" /><linearGradient
     inkscape:collect="always"
     xlink:href="#linearGradient4222"
     id="linearGradient3220"
     gradientUnits="userSpaceOnUse"
     gradientTransform="matrix(-1.5151998,0,0,1.3409057,73.914405,56.007563)"
     x1="3.8877637"
     y1="26.022909"
     x2="-8.7979088"
     y2="26.022909" /></defs><sodipodi:namedview
   inkscape:window-height="792"
   inkscape:window-width="1432"
   inkscape:pageshadow="2"
   inkscape:pageopacity="0.0"
   guidetolerance="10.0"
   gridtolerance="10.0"
   objecttolerance="10.0"
   borderopacity="1.0"
   bordercolor="#666666"
   pagecolor="#ffffff"
   id="base"
   showgrid="true"
   inkscape:zoom="23.708333"
   inkscape:cx="15.692127"
   inkscape:cy="10.31283"
   inkscape:window-x="4"
   inkscape:window-y="75"
   inkscape:current-layer="svg3543"
   inkscape:snap-global="false"
   showguides="true"
   inkscape:guide-bbox="true"><inkscape:grid
     type="xygrid"
     id="grid3789"
     visible="true"
     enabled="true" /></sodipodi:namedview>
	
	
	
	<linearGradient
   id="XMLID_7_"
   gradientUnits="userSpaceOnUse"
   x1="89.220703"
   y1="70.170898"
   x2="77.356499"
   y2="20.816099">
		<stop
   offset="0"
   style="stop-color:#489606"
   id="stop3552" />
		<stop
   offset="1"
   style="stop-color:#51A706"
   id="stop3554" />
	</linearGradient>
	
	
		<linearGradient
   id="XMLID_8_"
   gradientUnits="userSpaceOnUse"
   x1="595.16412"
   y1="44.329102"
   x2="579.53802"
   y2="75.265999"
   gradientTransform="matrix(-1,0,0,1,676.1953,0)">
		<stop
   offset="0"
   style="stop-color:#59A907"
   id="stop3559" />
		<stop
   offset="1"
   style="stop-color:#6EC308"
   id="stop3561" />
	</linearGradient>
	
	
	<linearGradient
   id="XMLID_9_"
   gradientUnits="userSpaceOnUse"
   x1="43.597698"
   y1="37.950199"
   x2="122.6445"
   y2="37.950199">
		<stop
   offset="0"
   style="stop-color:#9BCA6A"
   id="stop3568" />
		<stop
   offset="1"
   style="stop-color:#87C349"
   id="stop3570" />
	</linearGradient>
	
	
	<linearGradient
   id="XMLID_10_"
   gradientUnits="userSpaceOnUse"
   x1="1"
   y1="78.950203"
   x2="85.414101"
   y2="78.950203">
		<stop
   offset="0"
   style="stop-color:#489606"
   id="stop3577" />
		<stop
   offset="1"
   style="stop-color:#51A706"
   id="stop3579" />
	</linearGradient>
	
	<linearGradient
   id="XMLID_11_"
   gradientUnits="userSpaceOnUse"
   x1="8.1542997"
   y1="64.207001"
   x2="80.318703"
   y2="98.641296">
		<stop
   offset="0"
   style="stop-color:#59A907"
   id="stop3584" />
		<stop
   offset="1"
   style="stop-color:#6EC308"
   id="stop3586" />
	</linearGradient>
	
	
	<linearGradient
   id="XMLID_12_"
   gradientUnits="userSpaceOnUse"
   x1="15.6523"
   y1="59.7617"
   x2="19.4666"
   y2="76.925697">
		<stop
   offset="0"
   style="stop-color:#9BCA6A"
   id="stop3593" />
		<stop
   offset="1"
   style="stop-color:#87C349"
   id="stop3595" />
	</linearGradient>
	
<path
   sodipodi:nodetypes="cccccccc"
   style="fill:url(#linearGradient2514);fill-opacity:1;fill-rule:nonzero;stroke:url(#linearGradient2516);stroke-width:5.33383322;stroke-linecap:round;stroke-linejoin:round;marker:none;marker-start:none;marker-mid:none;marker-end:none;stroke-miterlimit:4;stroke-dasharray:none;stroke-dashoffset:0;stroke-opacity:1;visibility:visible;display:inline;overflow:visible"
   d="M 88.00825,13.328584 L 125.34508,42.664669 L 88.00825,72.000753 L 88.00825,55.99925 L 34.669917,55.99925 L 34.669917,29.330083 L 88.00825,29.330083 L 88.00825,13.328584 z"
   id="path4348" /><path
   sodipodi:nodetypes="cccccccc"
   style="opacity:0.35400002;fill:none;fill-opacity:1;fill-rule:nonzero;stroke:url(#linearGradient2511);stroke-width:5.33383369;stroke-linecap:butt;stroke-linejoin:miter;marker:none;marker-start:none;marker-mid:none;marker-end:none;stroke-miterlimit:4;stroke-dasharray:none;stroke-dashoffset:0;stroke-opacity:1;visibility:visible;display:inline;overflow:visible"
   d="M 93.342083,24.317066 L 116.97939,42.679445 L 93.342083,61.292139 L 93.342083,50.665417 L 41.667317,50.665417 L 41.52111,34.663917 L 93.342083,34.663917 L 93.342083,24.317066 z"
   id="path4360" /><path
   sodipodi:nodetypes="cccccccc"
   style="fill:url(#linearGradient3216);fill-opacity:1;fill-rule:nonzero;stroke:url(#linearGradient3218);stroke-width:5.33383322;stroke-linecap:round;stroke-linejoin:round;marker:none;marker-start:none;marker-mid:none;marker-end:none;stroke-miterlimit:4;stroke-dasharray:none;stroke-dashoffset:0;stroke-opacity:1;visibility:visible;display:inline;overflow:visible"
   d="M 40.003745,61.333083 L 2.6669166,90.66917 L 40.003745,120.00525 L 40.003745,104.00375 L 93.342085,104.00375 L 93.342085,77.334582 L 40.003745,77.334582 L 40.003745,61.333083 z"
   id="path3212" /><path
   sodipodi:nodetypes="cccccccc"
   style="opacity:0.35400002;fill:none;fill-opacity:1;fill-rule:nonzero;stroke:url(#linearGradient3220);stroke-width:5.33383369;stroke-linecap:butt;stroke-linejoin:miter;marker:none;marker-start:none;marker-mid:none;marker-end:none;stroke-miterlimit:4;stroke-dasharray:none;stroke-dashoffset:0;stroke-opacity:1;visibility:visible;display:inline;overflow:visible"
   d="M 34.669915,72.321565 L 11.032607,90.68394 L 34.669915,109.29664 L 34.669915,98.66992 L 86.344685,98.66992 L 86.490895,82.668416 L 34.669915,82.668416 L 34.669915,72.321565 z"
   id="path3214" /></svg>
